SVG/DMD.svg

<svg xmlns="http://www.w3.org/2000/svg" width="226.777" height="226.777" viewBox="0 0 226.777 226.777"><path d="M113.369 0C50.757 0 0 50.757 0 113.369s50.757 113.369 113.369 113.369c62.611 0 113.369-50.757 113.369-113.369S175.98 0 113.369 0zm66.871 95.253l-23.266-4.063 9.102-22.763a69.08 69.08 0 0 1 14.164 26.826zm-27.773-6.654l-14.365-14.366 23.913-9.513-9.548 23.879zm-39.097 19.055L97.359 75.907h32.021l-16.01 31.747zm20.887-29.986l14.814 14.815-29.886 15.072 15.072-29.887zm-26.702 29.887L77.669 92.484 92.484 77.67l15.071 29.885zm.099 5.815l-31.748 16.011V97.359l31.748 16.011zm-.099 5.815l-15.073 29.887-14.813-14.814 29.886-15.073zm5.815-.098l16.01 31.746H97.359l16.011-31.746zm5.815.098l29.886 15.071-14.814 14.813-15.072-29.884zm-.098-5.815l31.746-16.011v32.021l-31.746-16.01zm39.215-52.714l-22.816 9.077-4.515-23.373a69.071 69.071 0 0 1 27.331 14.296zm-57.608-15.393a69.837 69.837 0 0 1 24.803-.103l4.945 25.598H96.241l4.453-25.495zm-5.441 1.238l-4.064 23.264-22.762-9.1a69.066 69.066 0 0 1 26.826-14.164zm-6.655 27.772L74.232 88.638 64.72 64.726l23.878 9.547zm-27.942-5.836l9.077 22.816-23.372 4.514a69.079 69.079 0 0 1 14.295-27.33zM44.101 113.37c0-4.137.365-8.189 1.06-12.125l25.597-4.946v34.2l-25.496-4.452a69.687 69.687 0 0 1-1.161-12.677zm2.399 18.116l23.265 4.064-9.1 22.763A69.1 69.1 0 0 1 46.5 131.486zm27.773 6.656l14.365 14.365-23.913 9.513 9.548-23.878zm-5.836 27.943l22.815-9.077 4.516 23.372a69.082 69.082 0 0 1-27.331-14.295zm57.609 15.393a69.757 69.757 0 0 1-12.676 1.16 69.73 69.73 0 0 1-12.127-1.059l-4.945-25.598h34.2l-4.452 25.497zm5.44-1.238l4.064-23.266 22.763 9.102a69.097 69.097 0 0 1-26.827 14.164zm6.655-27.773l14.364-14.365 9.515 23.913-23.879-9.548zm27.944 5.835l-9.077-22.816 23.371-4.515a69.074 69.074 0 0 1-14.294 27.331zm15.494-32.806l-25.597 4.946v-34.2l25.496 4.452a69.757 69.757 0 0 1 1.16 12.676c0 4.137-.364 8.188-1.059 12.126z"/></svg>

<svg version="1.1" id="Layer_1" xmlns="http://www.w3.org/2000/svg" xmlns:xlink="http://www.w3.org/1999/xlink" x="0px" y="0px"
	 width="226.777px" height="226.777px" viewBox="0 0 226.777 226.777" enable-background="new 0 0 226.777 226.777"
	 xml:space="preserve">
<path fill="#000000" d="M113.369,0C50.757,0,0,50.757,0,113.369c0,62.612,50.757,113.369,113.369,113.369
	c62.611,0,113.369-50.757,113.369-113.369C226.738,50.757,175.98,0,113.369,0z M180.24,95.253l-23.266-4.063l9.102-22.763
	C172.628,76.103,177.53,85.226,180.24,95.253z M152.467,88.599l-14.365-14.366l23.913-9.513L152.467,88.599z M113.37,107.654
	L97.359,75.907h32.021L113.37,107.654z M134.257,77.668l14.814,14.815l-29.886,15.072L134.257,77.668z M107.555,107.555
	L77.669,92.484L92.484,77.67L107.555,107.555z M107.654,113.37l-31.748,16.011V97.359L107.654,113.37z M107.555,119.185
	l-15.073,29.887l-14.813-14.814L107.555,119.185z M113.37,119.087l16.01,31.746H97.359L113.37,119.087z M119.185,119.185
	l29.886,15.071l-14.814,14.813L119.185,119.185z M119.087,113.37l31.746-16.011v32.021L119.087,113.37z M158.302,60.656
	l-22.816,9.077l-4.515-23.373C141.195,49.039,150.497,53.995,158.302,60.656z M100.694,45.263c4.11-0.761,8.345-1.162,12.676-1.162
	c4.137,0,8.188,0.365,12.127,1.059l4.945,25.598H96.241L100.694,45.263z M95.253,46.501l-4.064,23.264l-22.762-9.1
	C76.103,54.113,85.226,49.21,95.253,46.501z M88.598,74.273L74.232,88.638l-9.512-23.912L88.598,74.273z M60.656,68.437
	l9.077,22.816l-23.372,4.514C49.039,85.544,53.996,76.243,60.656,68.437z M44.101,113.37c0-4.137,0.365-8.189,1.06-12.125
	l25.597-4.946v34.2l-25.496-4.452C44.502,121.935,44.101,117.7,44.101,113.37z M46.5,131.486l23.265,4.064l-9.1,22.763
	C54.113,150.636,49.21,141.512,46.5,131.486z M74.273,138.142l14.365,14.365l-23.913,9.513L74.273,138.142z M68.437,166.085
	l22.815-9.077l4.516,23.372C85.544,177.701,76.242,172.745,68.437,166.085z M126.046,181.478c-4.111,0.759-8.346,1.16-12.676,1.16
	c-4.138,0-8.188-0.364-12.127-1.059l-4.945-25.598h34.2L126.046,181.478z M131.486,180.24l4.064-23.266l22.763,9.102
	C150.636,172.628,141.512,177.53,131.486,180.24z M138.141,152.467l14.364-14.365l9.515,23.913L138.141,152.467z M166.085,158.302
	l-9.077-22.816l23.371-4.515C177.701,141.196,172.744,150.497,166.085,158.302z M181.579,125.496l-25.597,4.946v-34.2l25.496,4.452
	c0.759,4.111,1.16,8.346,1.16,12.676C182.638,117.507,182.274,121.558,181.579,125.496z"/>
</svg>
